.svelte-kit/output/client/library/social-飞书.svg

<svg width="48" height="48" viewBox="0 0 48 48" fill="none" xmlns="http://www.w3.org/2000/svg">
<path d="M10 8C10 9 17 11.5 24.7447 24.7439C24.7447 24.7439 28.9293 20.3805 31 19C32.5 18 33.7124 17.6683 33.7124 17.6683C33.7124 15.1562 29.5 8 28 8H10Z" fill="#00D6B9"/>
<path d="M43.5 18.5C42.5 17.8333 39.8507 16.7285 37 17C35.7651 17.1176 34.6814 17.3484 33.7124 17.6683C33.7124 17.6683 32.5 18 31 19C28.9293 20.3805 24.7447 24.7439 24.7447 24.7439C23.3172 26.1414 21.6945 27.4759 19.5 28.5C19.5 28.5 26.5 31.5 31 31.5C36.0627 31.5 38 28 38 28C39.5 24.6953 41.5 21 43.5 18.5Z" fill="#163C9A"/>
<path d="M4 17.5L4 34.5C4 35.5 10 40 19 40C29 40 36.0504 32.2952 38 28C38 28 36.0627 31.5 31 31.5C26.5 31.5 19.5 28.5 19.5 28.5C14.3828 26.2613 9.47026 21.923 6.5942 19.3832C4.97392 17.9524 4 17.0923 4 17.5Z" fill="#3370FF"/>
</svg>

<svg width="48" height="48" fill="none" xmlns="http://www.w3.org/2000/svg"><path d="M10 8c0 1 7 3.5 14.745 16.744 0 0 4.184-4.363 6.255-5.744 1.5-1 2.712-1.332 2.712-1.332C33.712 15.156 29.5 8 28 8H10Z" fill="#00D6B9"/><path d="M43.5 18.5c-1-.667-3.65-1.771-6.5-1.5a14.945 14.945 0 0 0-3.288.668S32.5 18 31 19c-2.07 1.38-6.255 5.744-6.255 5.744-1.428 1.397-3.05 2.732-5.245 3.756 0 0 7 3 11.5 3 5.063 0 7-3.5 7-3.5 1.5-3.305 3.5-7 5.5-9.5Z" fill="#163C9A"/><path d="M4 17.5v17c0 1 6 5.5 15 5.5 10 0 17.05-7.705 19-12 0 0-1.937 3.5-7 3.5-4.5 0-11.5-3-11.5-3-5.117-2.239-10.03-6.577-12.906-9.117C4.974 17.953 4 17.093 4 17.5Z" fill="#3370FF"/></svg>
